X: 1
T: Once I Loved a maiden fair
B: Sabine Baring Gould, 1895, Old English Songs from English Minstrelsie, 1895
S: http://www.folkinfo.org/songs
M: 4/4
L: 1/8
K: G
|:\
"G"B2 B2 B2 G2 | "D7"A2 B2 "G"G4 |\
"Am"A3 G A2 B2 | "D7"A4 "D7"G4 :|\
"G"B2 c2 d4 | "C"e2 e2 "D7"d4 |
"G"B3 c d2 B2 | "D7"A4 "G"G4 ||\
"G"B3 B B2 G2 | "D7"A2 B2 "Em"G4 |\
"Am"A3 G A2 B2 | "D7"A4 "G"G4 |]

%%sep 1 1 500

